packages/foundations/assets/icons/functional/images/transportation/train_inverted.svg

<svg xmlns="http://www.w3.org/2000/svg" width="32" height="32" fill="none"><path fill="#1A1C1F" fill-rule="evenodd" d="M13.067 2.106c-2.015.289-3.415 1.07-4.634 2.587a10.8 10.8 0 0 0-2.296 5.68c-.102 1.084-.17 4.668-.11 5.788.062 1.181.143 2.061.196 2.148.181.293 1.716 2.411 2.02 2.787.863 1.068 2.24 2.244 3.799 3.243 1.027.659.911.638 3.602.662 2.423.023 2.952-.009 3.491-.211.604-.226 2.575-1.633 3.493-2.494.767-.719 1.891-2.111 2.838-3.515l.347-.514.055-.546c.125-1.229.152-2.435.102-4.548-.029-1.188-.076-2.424-.106-2.746-.204-2.188-1.074-4.289-2.455-5.929-1.039-1.234-2.236-1.942-3.916-2.316-.507-.113-.666-.12-3.226-.134-2.053-.011-2.814.003-3.2.058m5.173 3.039c1.531.241 2.562.653 3.264 1.302a4 4 0 0 1 1.248 2.314c.104.595.077.984-.141 2.068-.375 1.863-.778 2.631-1.678 3.195-.383.24-.819.355-2.026.534-1.472.218-2.605.281-3.791.214-1.064-.061-2.904-.316-3.438-.477-.699-.21-1.363-.782-1.699-1.466-.302-.612-.806-2.803-.806-3.5 0-1.708 1.161-3.208 2.94-3.799a10.5 10.5 0 0 1 1.914-.406l.693-.079c.486-.055 2.987.016 3.52.1m-6.09 12.443a.94.94 0 0 1 .302.246c.075.098.328.789.618 1.686.514 1.59.565 1.862.405 2.17-.233.448-.822.668-1.278.478-.367-.154-.48-.366-.916-1.725l-.492-1.535c-.317-.987.454-1.735 1.361-1.32m8.489.012c.32.162.497.432.524.793.019.269-.034.474-.469 1.812-.524 1.613-.622 1.806-.998 1.963-.407.17-.914.017-1.186-.359-.273-.376-.244-.583.32-2.317.266-.817.53-1.55.586-1.629.241-.338.829-.465 1.223-.263M7.233 23.364c.455 1.698.648 2.179 1.269 3.162.647 1.025 1.258 1.617 2.084 2.017.403.195.425.214.409.365-.038.364.199.789.543.973l.222.119h8.48l.222-.119c.348-.186.599-.643.533-.972-.028-.14-.01-.157.315-.295.448-.191.989-.575 1.36-.967.479-.506 1.295-1.784 1.543-2.419.106-.27.64-2.156.64-2.26 0-.025-.309.252-.688.617-.787.758-1.638 1.433-2.781 2.205-1.33.898-1.75 1.058-2.998 1.144-.952.066-3.718.064-4.706-.003-1.348-.092-1.646-.197-2.862-1.012-1.391-.931-2.257-1.621-3.202-2.55l-.517-.508z"/></svg>

<svg width="32" height="32" viewBox="0 0 32 32" fill="none" xmlns="http://www.w3.org/2000/svg"><path d="M13.067 2.106 C 11.052 2.395,9.652 3.176,8.433 4.693 C 7.149 6.288,6.328 8.320,6.137 10.373 C 6.035 11.457,5.967 15.041,6.027 16.161 C 6.089 17.342,6.170 18.222,6.223 18.309 C 6.404 18.602,7.939 20.720,8.243 21.096 C 9.106 22.164,10.483 23.340,12.042 24.339 C 13.069 24.998,12.953 24.977,15.644 25.001 C 18.067 25.024,18.596 24.992,19.135 24.790 C 19.739 24.564,21.710 23.157,22.628 22.296 C 23.395 21.577,24.519 20.185,25.466 18.781 L 25.813 18.267 25.868 17.721 C 25.993 16.492,26.020 15.286,25.970 13.173 C 25.941 11.985,25.894 10.749,25.864 10.427 C 25.660 8.239,24.790 6.138,23.409 4.498 C 22.370 3.264,21.173 2.556,19.493 2.182 C 18.986 2.069,18.827 2.062,16.267 2.048 C 14.214 2.037,13.453 2.051,13.067 2.106 M18.240 5.145 C 19.771 5.386,20.802 5.798,21.504 6.447 C 22.178 7.071,22.592 7.838,22.752 8.761 C 22.856 9.356,22.829 9.745,22.611 10.829 C 22.236 12.692,21.833 13.460,20.933 14.024 C 20.550 14.264,20.114 14.379,18.907 14.558 C 17.435 14.776,16.302 14.839,15.116 14.772 C 14.052 14.711,12.212 14.456,11.678 14.295 C 10.979 14.085,10.315 13.513,9.979 12.829 C 9.677 12.217,9.173 10.026,9.173 9.329 C 9.173 7.621,10.334 6.121,12.113 5.530 C 12.638 5.356,13.389 5.197,14.027 5.124 C 14.305 5.092,14.617 5.057,14.720 5.045 C 15.206 4.990,17.707 5.061,18.240 5.145 M12.150 17.588 C 12.247 17.632,12.383 17.743,12.452 17.834 C 12.527 17.932,12.780 18.623,13.070 19.520 C 13.584 21.110,13.635 21.382,13.475 21.690 C 13.242 22.138,12.653 22.358,12.197 22.168 C 11.830 22.014,11.717 21.802,11.281 20.443 C 11.057 19.745,10.836 19.054,10.789 18.908 C 10.472 17.921,11.243 17.173,12.150 17.588 M20.639 17.600 C 20.959 17.762,21.136 18.032,21.163 18.393 C 21.182 18.662,21.129 18.867,20.694 20.205 C 20.170 21.818,20.072 22.011,19.696 22.168 C 19.289 22.338,18.782 22.185,18.510 21.809 C 18.237 21.433,18.266 21.226,18.830 19.492 C 19.096 18.675,19.360 17.942,19.416 17.863 C 19.657 17.525,20.245 17.398,20.639 17.600 M7.233 23.364 C 7.688 25.062,7.881 25.543,8.502 26.526 C 9.149 27.551,9.760 28.143,10.586 28.543 C 10.989 28.738,11.011 28.757,10.995 28.908 C 10.957 29.272,11.194 29.697,11.538 29.881 L 11.760 30.000 16.000 30.000 L 20.240 30.000 20.462 29.881 C 20.810 29.695,21.061 29.238,20.995 28.909 C 20.967 28.769,20.985 28.752,21.310 28.614 C 21.758 28.423,22.299 28.039,22.670 27.647 C 23.149 27.141,23.965 25.863,24.213 25.228 C 24.319 24.958,24.853 23.072,24.853 22.968 C 24.853 22.943,24.544 23.220,24.165 23.585 C 23.378 24.343,22.527 25.018,21.384 25.790 C 20.054 26.688,19.634 26.848,18.386 26.934 C 17.434 27.000,14.668 26.998,13.680 26.931 C 12.332 26.839,12.034 26.734,10.818 25.919 C 9.427 24.988,8.561 24.298,7.616 23.369 L 7.099 22.861 7.233 23.364 " fill="#1A1C1F" stroke="none" fill-rule="evenodd"></path></svg>
